front/public/static/landing/compare/glean.svg

<svg fill="none" height="121" viewBox="0 0 300 121" width="300" xmlns="http://www.w3.org/2000/svg"><g fill="#343ced"><path d="m145.573 77.632c-1.651 1.5717-3.565 2.8816-5.744 3.7984-2.113.9168-4.49 1.3752-6.999 1.3752-1.32 0-2.575-.1306-3.762-.3925-1.189-.2618-2.377-.6549-3.5-1.1133-1.122-.5237-2.178-1.1133-3.169-1.7683-.99-.7208-1.915-1.5064-2.707-2.3579l31.228-11.9841 13.271-5.1081c-.726-4.5843-2.377-8.9065-4.885-12.6395-5.678-8.5134-15.45-14.0798-26.476-14.0798-17.495 0-31.756 14.1455-31.756 31.4996 0 1.6376.132 3.2094.396 4.7811.727 4.5839 2.377 8.9066 4.886 12.6391 1.452 2.0954 3.103 4.0602 5.017 5.7632 1.915 1.7029 3.962 3.2087 6.273 4.4533 2.244 1.244 4.687 2.2267 7.262 2.881 2.575.6549 5.216.9827 7.989.9827 4.357 0 8.583-.8515 12.346-2.4885 3.829-1.5717 7.196-3.9296 10.101-6.7453 2.905-2.8816 5.216-6.2216 6.801-10.02.659-1.5717 1.188-3.2747 1.584-4.977h-14.393c-.858 2.0954-2.113 3.929-3.763 5.5007zm-12.676-30.7794c5.149 0 9.837 2.2268 13.138 5.6321l-31.228 11.9845c.197-9.6926 8.252-17.6166 18.09-17.6166z"/><path d="m88.1071 70.1102-.0661-69.397065h-13.8125l.0662 69.067465c0 14.5785 9.7813 24.9353 24.0563 25.9906v-13.5892c-6.0136-.9893-10.2439-5.739-10.2439-12.0718z"/><path d="m87.9548 70.2403-.0662-69.397038h-13.8124l.0661 69.067438c0 14.5785 9.7814 24.9353 24.0564 25.9906v-13.5891c-6.0137-.9894-10.2439-5.739-10.2439-12.0719z"/><path d="m234.192 63.7452c-.67-16.7652-14.814-30.2557-32.175-30.2557-17.764 0-32.243 14.1456-32.243 31.4996 0 17.3541 14.479 31.5004 32.243 31.5004 6.837 0 13.205-2.096 18.433-5.6979v5.1083h13.876l-.134-32.0241zm-32.175 19.2538c-10.122 0-18.367-8.0552-18.367-17.944 0-9.8887 8.245-17.9439 18.367-17.9439s18.367 8.055 18.367 17.9439c0 9.889-8.245 17.944-18.367 17.944z"/><path d="m270.376 33.1318c-16.361 0-29.624 13.2136-29.624 29.5134v33.4192h14.083v-33.4414c0-8.4761 6.897-15.3473 15.405-15.3473h.272c8.508 0 15.405 6.8712 15.405 15.3473v33.4414h14.083v-33.4192c0-16.2998-13.263-29.5134-29.624-29.5134z"/><path d="m77.6465 97.0557c-.9346 1.3241-1.9296 2.6122-2.9795 3.8453-1.0502 1.24-2.1495 2.426-3.3027 3.569-1.1473 1.143-2.3492 2.231-3.5997 3.271-1.2442 1.04-2.5367 2.02-3.872 2.946-1.3294.931-2.7021 1.801-4.1104 2.612-1.402.804-2.8464 1.548-4.3213 2.231-1.4688.684-2.9682 1.301-4.5039 1.851-1.5173.556-3.0713 1.04-4.6494 1.451-1.5599.417-3.1445.769-4.7529 1.047-1.5904.278-3.1992.49-4.832.623-1.6025.139-3.2234.211-4.8623.211-1.639 0-3.2599-.072-4.8624-.211-1.6328-.133-3.2477-.345-4.832-.623-1.6083-.278-3.1982-.63-4.7519-1.047l3.5752-13.292c1.1714.321 2.3673.581 3.5752.786 1.1957.212 2.4096.369 3.6357.472 1.2079.103 2.4279.157 3.6602.157 1.2322 0 2.4522-.054 3.6601-.157 1.226-.103 2.44-.26 3.6357-.472 1.2079-.205 2.4038-.465 3.5752-.786 1.1898-.308 2.3557-.672 3.503-1.089 1.1532-.411 2.2821-.876 3.3867-1.39 1.1108-.514 2.1978-1.07 3.2539-1.681 1.0623-.605 2.1-1.265 3.1016-1.9601 1.0076-.6954 1.9792-1.4327 2.914-2.2129.9409-.7801 1.8449-1.6031 2.7129-2.4619.868-.8647 1.7002-1.7533 2.4893-2.6846.7891-.9312 1.542-1.8986 2.2461-2.8964zm-12.374-63.9248-8.961 11.4257c4.6249 5.5097 7.4101 12.6046 7.4102 20.3487 0 17.5306-14.2642 31.742-31.8604 31.7422-17.5963 0-31.8613-14.2116-31.8613-31.7422.0002487-17.5305 14.2651-31.7412 31.8613-31.7412 4.7993 0 9.3499 1.0587 13.4317 2.9521l9.0273-11.5098zm-33.4112 13.665c-10.0389 0-18.1775 8.108-18.1777 18.1094 0 10.0015 8.1387 18.1103 18.1777 18.1103 10.0389-.0002 18.1768-8.1089 18.1768-18.1103-.0003-10.0013-8.138-18.1092-18.1768-18.1094z"/></g></svg>

<svg width="300" height="121" viewBox="0 0 300 121" fill="none" xmlns="http://www.w3.org/2000/svg">
<path d="M145.573 77.632C143.922 79.2037 142.008 80.5136 139.829 81.4304C137.716 82.3472 135.339 82.8056 132.83 82.8056C131.51 82.8056 130.255 82.675 129.068 82.4131C127.879 82.1513 126.691 81.7582 125.568 81.2998C124.446 80.7761 123.39 80.1865 122.399 79.5315C121.409 78.8107 120.484 78.0251 119.692 77.1736L150.92 65.1895L164.191 60.0814C163.465 55.4971 161.814 51.1749 159.306 47.4419C153.628 38.9285 143.856 33.3621 132.83 33.3621C115.335 33.3621 101.074 47.5076 101.074 64.8617C101.074 66.4993 101.206 68.0711 101.47 69.6428C102.197 74.2267 103.847 78.5494 106.356 82.2819C107.808 84.3773 109.459 86.3421 111.373 88.0451C113.288 89.748 115.335 91.2538 117.646 92.4984C119.89 93.7424 122.333 94.7251 124.908 95.3794C127.483 96.0343 130.124 96.3621 132.897 96.3621C137.254 96.3621 141.48 95.5106 145.243 93.8736C149.072 92.3019 152.439 89.944 155.344 87.1283C158.249 84.2467 160.56 80.9067 162.145 77.1083C162.804 75.5366 163.333 73.8336 163.729 72.1313H149.336C148.478 74.2267 147.223 76.0603 145.573 77.632ZM132.897 46.8526C138.046 46.8526 142.734 49.0794 146.035 52.4847L114.807 64.4692C115.004 54.7766 123.059 46.8526 132.897 46.8526Z" fill="#343CED"/>
<path d="M88.1071 70.1102L88.041 0.713135H74.2285L74.2947 69.7806C74.2947 84.3591 84.076 94.7159 98.351 95.7712V82.182C92.3374 81.1927 88.1071 76.443 88.1071 70.1102Z" fill="#343CED"/>
<path d="M87.9548 70.2403L87.8886 0.843262H74.0762L74.1423 69.9107C74.1423 84.4892 83.9237 94.846 98.1987 95.9013V82.3122C92.185 81.3228 87.9548 76.5732 87.9548 70.2403Z" fill="#343CED"/>
<path d="M234.192 63.7452C233.522 46.98 219.378 33.4895 202.017 33.4895C184.253 33.4895 169.774 47.6351 169.774 64.9891C169.774 82.3432 184.253 96.4895 202.017 96.4895C208.854 96.4895 215.222 94.3935 220.45 90.7916V95.8999H234.326L234.192 63.8758V63.7452ZM202.017 82.999C191.895 82.999 183.65 74.9438 183.65 65.055C183.65 55.1663 191.895 47.1111 202.017 47.1111C212.139 47.1111 220.384 55.1661 220.384 65.055C220.384 74.944 212.139 82.999 202.017 82.999Z" fill="#343CED"/>
<path d="M270.376 33.1318C254.015 33.1318 240.752 46.3454 240.752 62.6452V96.0644H254.835V62.623C254.835 54.1469 261.732 47.2757 270.24 47.2757H270.512C279.02 47.2757 285.917 54.1469 285.917 62.623V96.0644H300V62.6452C300 46.3454 286.737 33.1318 270.376 33.1318Z" fill="#343CED"/>
<path d="M77.6465 97.0557C76.7119 98.3798 75.7169 99.6679 74.667 100.901C73.6168 102.141 72.5175 103.327 71.3643 104.47C70.217 105.613 69.0151 106.701 67.7646 107.741C66.5204 108.781 65.2279 109.761 63.8926 110.687C62.5632 111.618 61.1905 112.488 59.7822 113.299C58.3802 114.103 56.9358 114.847 55.4609 115.53C53.9921 116.214 52.4927 116.831 50.957 117.381C49.4397 117.937 47.8857 118.421 46.3076 118.832C44.7477 119.249 43.1631 119.601 41.5547 119.879C39.9643 120.157 38.3555 120.369 36.7227 120.502C35.1202 120.641 33.4993 120.713 31.8604 120.713C30.2214 120.713 28.6005 120.641 26.998 120.502C25.3652 120.369 23.7503 120.157 22.166 119.879C20.5577 119.601 18.9678 119.249 17.4141 118.832L20.9893 105.54C22.1607 105.861 23.3566 106.121 24.5645 106.326C25.7602 106.538 26.9741 106.695 28.2002 106.798C29.4081 106.901 30.6281 106.955 31.8604 106.955C33.0926 106.955 34.3126 106.901 35.5205 106.798C36.7465 106.695 37.9605 106.538 39.1562 106.326C40.3641 106.121 41.56 105.861 42.7314 105.54C43.9212 105.232 45.0871 104.868 46.2344 104.451C47.3876 104.04 48.5165 103.575 49.6211 103.061C50.7319 102.547 51.8189 101.991 52.875 101.38C53.9373 100.775 54.975 100.115 55.9766 99.4199C56.9842 98.7245 57.9558 97.9872 58.8906 97.207C59.8315 96.4269 60.7355 95.6039 61.6035 94.7451C62.4715 93.8804 63.3037 92.9918 64.0928 92.0605C64.8819 91.1293 65.6348 90.1619 66.3389 89.1641L77.6465 97.0557ZM65.2725 33.1309L56.3115 44.5566C60.9364 50.0663 63.7216 57.1612 63.7217 64.9053C63.7217 82.4359 49.4575 96.6473 31.8613 96.6475C14.265 96.6475 0 82.4359 0 64.9053C0.000248702 47.3748 14.2651 33.1641 31.8613 33.1641C36.6606 33.1641 41.2112 34.2228 45.293 36.1162L54.3203 24.6064L65.2725 33.1309ZM31.8613 46.7959C21.8224 46.7959 13.6838 54.9039 13.6836 64.9053C13.6836 74.9068 21.8223 83.0156 31.8613 83.0156C41.9002 83.0154 50.0381 74.9067 50.0381 64.9053C50.0378 54.904 41.9001 46.7961 31.8613 46.7959Z" fill="#343CED"/>
</svg>
